images/turts/firefighter.svg

<?xml version="1.0" encoding="UTF-8" standalone="no"?>
<svg
   width="37.39mm"
   height="41.44mm"
   viewBox="0 0 106 117.47"
   version="1.1"
   id="svg10842"
   xmlns="http://www.w3.org/2000/svg"
   xmlns:svg="http://www.w3.org/2000/svg">
  <defs
     id="defs10814">
    <style
       id="style10809">
      .cls-1 {
        fill: none;
      }

      .cls-2 {
        fill: #f39110;
      }

      .cls-3 {
        clip-path: url(#clip-path);
      }

      .cls-4 {
        fill: #fecc50;
      }

      .cls-5 {
        fill: #a11922;
      }

      .cls-6 {
        fill: #8d2a3e;
      }

      .cls-7 {
        fill: #2b2c29;
      }

      .cls-8 {
        fill: #e02233;
      }

      .cls-9 {
        fill: #e95b6f;
      }
    </style>
    <clipPath
       id="clip-path">
      <path
         class="cls-1"
         d="M53.83,33.61c-12.33,1-21.36,7.54-25.7,14.41a56.86,56.86,0,0,0-3.85,7,20.68,20.68,0,0,1,8.21,1.85C37,59.1,42.27,61.46,46.1,72.48,49,80.81,50.28,88.78,57,90.28c7.58,1.7,25,0,33.07-8.45s9.42-14.64,7-22.55-12.57-21.76-26-25C65.19,32.91,59.44,33.14,53.83,33.61Z"
         id="path10811" />
    </clipPath>
  </defs>
  <g
     id="Layer_2"
     data-name="Layer 2">
    <g
       id="grid">
      <g
         id="wh_copy"
         data-name="wh copy">
        <g
           id="ffs">
          <g
             id="g10836">
            <path
               class="cls-2"
               d="M106,48.81a43,43,0,0,0-2.46-15c-1.34,13.72-8.76,20.68-16.37,17.3C80,48,85,36,85.45,30.28c.72-9.7.23-20.82-17.28-30.28,7.15,14.11.56,22.74-6.24,23.18-7.55.49-14.36-6.66-11.67-18.1-8.33,6-8.7,16.21-6.24,22.86,2.57,6.94-.27,12.64-6.75,13.19C30,41.75,26.11,33.24,30,19.8a43.33,43.33,0,1,0,76,29Z"
               id="path10816" />
            <g
               class="cls-3"
               clip-path="url(#clip-path)"
               id="g10820">
              <path
                 class="cls-4"
                 d="M89.67,62.28c.26,7.48-6.34,10.33-9.86,8.87-5.08-2.11-3.66-5.6-4.89-12.89s-6.2-12.4-13.65-14.72C66.53,59,58,64.51,53.53,65.46s-9.1-.11-9.5-9.83A29,29,0,0,0,35.2,76.14c0,.89,0,1.77.1,2.64a41.18,41.18,0,0,0,57.91.74c.09-.87.15-1.75.16-2.64A29,29,0,0,0,89.67,62.28Z"
                 id="path10818" />
            </g>
            <path
               class="cls-5"
               d="M 46.3,65.06 C 46.3,71 35.94,75.81 23.16,75.81 10.38,75.81 0,71 0,65.06 c 0,-5.94 10.36,-4.13 23.15,-4.13 12.79,0 23.15,-1.8 23.15,4.13 z"
               id="path10822"
               style="display:none" />
            <path
               class="cls-6"
               d="M90,81.83C82,90.28,64.55,92,57,90.28c-6.69-1.5-8-9.47-10.87-17.8C42.27,61.46,37,59.1,32.49,56.91a20.68,20.68,0,0,0-8.21-1.85v0c-5.63.14-11.21,1.55-15.5,5.38C-4.43,72.24,2.31,88.19,7.16,92.67s8.13,5.19,8.49,5.84-.45,3-.9,4.62c-.5,1.85-1.79,5.08-.61,7.45s4.94,3.59,7.61,3.74,7.5-.18,9.3-2.08c1.34-1.42,1.19-4.2,1-5.53s-.51-3.54-.51-3.54,5.15.39,9.05.52c4.3.14,11.43.21,11.43.21s.31,3.5.35,4.49.4,5.73,1.27,6.7,2.26,2.54,7.52,2.37c6.73-.23,9.47-3.13,10.32-4.83.94-1.88.23-4.6,0-6.51S70,99.51,70,99.51s5.27-3,7.23-4,6.1-3.87,6.1-3.87.46,2.19.61,2.85c.2.92,1.76,2.38,6.93,2.23,6.5-.18,8.86-4.73,9.3-6.38s-.9-5.8-1.34-7.53S97,75.63,97.15,74.49"
               id="path10824" />
            <path
               class="cls-7"
               d="M33,70.51c.55,2.49-.64,5.13-3.39,5.48-2.27.29-4.13-1.23-4.68-3.72A4.4,4.4,0,0,1,28,66.87,4.38,4.38,0,0,1,33,70.51Z"
               id="path10826" />
            <path
               class="cls-7"
               d="M16.75,71.38c.17,2.52-1.94,5.13-4.7,4.73-2.26-.34-3.63-2.28-3.49-4.79A4.38,4.38,0,0,1,13,67C15.25,67.14,16.58,68.76,16.75,71.38Z"
               id="path10828" />
            <path
               class="cls-7"
               d="M24.18,80.4c1-.75,2.65-2.48,3.83-1.1s-.71,2.78-1.79,3.64-3.51,3-5.32,3-4.33-1.89-6-3.2c-1.37-1.07-2-2.49-1.33-3.39s1.88-.63,2.89.2c1.17,1,3.42,2.86,4.31,2.83S22.84,81.39,24.18,80.4Z"
               id="path10830" />
            <path
               class="cls-8"
               d="M 41.1,60.43 C 39.68,60.15 39.29,53.77 36,49.09 32.9,44.69 27,42.48 23.15,42.48 19.3,42.48 13.4,44.69 10.3,49.09 7,53.77 6.63,60.15 5.2,60.43 -0.28,61.53 0,64.38 0,65 c 0.21,-0.77 0.73,-2.6 6.45,-2.71 5.72,-0.11 10.88,1.34 16.69,1.34 5.81,0 11.06,-1.44 16.69,-1.34 5.63,0.1 6.25,1.94 6.45,2.71 0.05,-0.62 0.31,-3.47 -5.18,-4.57 z"
               id="path10832"
               style="display:none" />
            <path
               class="cls-9"
               d="m 23.16,42.48 c -3.47,0 -8.27,5.94 -8.27,8.36 v 6.52 c 0,0 0.18,1.64 1.52,1.64 H 29.9 c 1.34,0 1.52,-1.66 1.52,-1.66 v -6.5 c 0,-2.42 -4.8,-8.36 -8.26,-8.36 z"
               id="path10834"
               style="display:none" />
          </g>
        </g>
      </g>
    </g>
  </g>
  <g
     id="g8739"
     transform="matrix(1.2755834,0,0,1.2755834,-19.315003,10.711222)">
    <path
       fill="#dd2e44"
       d="m 50.008438,43.57252 c 0.01096,-0.09019 -0.0233,-0.184885 -0.08113,-0.280885 0,0 -11.659764,-19.349415 -12.931632,-19.49999 -1.271976,-0.148614 -17.095745,15.975997 -17.095745,15.975997 -0.07949,0.08048 -0.134418,0.163293 -0.144433,0.25454 -0.149097,1.263066 6.503563,3.079506 14.856939,4.060565 8.355344,0.981168 15.246902,0.752838 15.396001,-0.510227 z"
       id="path5268"
       style="stroke-width:1.39378" />
    <path
       fill="#ea596e"
       d="m 36.910444,23.815538 c -0.0451,0.01226 -0.09976,0.0369 -0.16307,0.07485 -1.27625,1.439349 -11.565988,13.519252 -14.338925,17.790308 2.168665,0.745234 4.657846,1.24669 7.662388,1.763932 1.414869,-3.989147 7.721325,-18.904972 6.83961,-19.629086 z"
       id="path5270"
       style="stroke-width:1.39378" />
  </g>
  <g
     id="g9662"
     transform="matrix(0.99999175,0,0,0.99999175,-2.8371168,17.101461)">
    <path
       fill="#77b255"
       d="m 90.649553,13.6046 c 1.923741,4.427349 0.303314,7.880979 -2.289123,9.002313 -2.590105,1.12102 -6.221074,-0.05478 -8.13983,-4.480433 -0.747557,-1.728292 -1.67927,-2.150871 -1.942457,-2.04153 -0.266903,0.116978 -0.593544,1.090334 0.153381,2.813959 1.921091,4.425332 0.298331,7.879279 -2.294107,9.000613 -2.591806,1.125997 -6.218738,-0.0551 -8.137812,-4.483085 -0.749576,-1.725641 -1.683937,-2.150237 -1.946176,-2.033897 -0.260221,0.113686 -0.59184,1.08535 0.1554,2.811309 0.515305,1.189503 -0.02809,2.579561 -1.219928,3.095186 -1.196817,0.513927 -2.580193,-0.03276 -3.098469,-1.22661 -1.91844,-4.423316 -0.302997,-7.878647 2.293475,-9.005281 2.590105,-1.121018 6.216722,0.05775 8.140461,4.485103 0.747557,1.728291 1.67927,2.15087 1.941509,2.034529 0.262851,-0.111722 0.594491,-1.083334 -0.152433,-2.806959 -1.921722,-4.429998 -0.303313,-7.880979 2.293474,-9.005279 2.587455,-1.123039 6.214073,0.05573 8.13813,4.485418 0.744588,1.723942 1.683304,2.14557 1.941508,2.034528 0.264569,-0.116662 0.594175,-1.085667 -0.150733,-2.811942 -0.520608,-1.193534 0.02841,-2.577226 1.219929,-3.095186 1.191835,-0.515621 2.580194,0.03276 3.093801,1.227244 z"
       id="path9165"
       style="stroke-width:2.35461" />
    <circle
       fill="#5c913b"
       cx="92.141136"
       cy="35.691261"
       r="3.5319221"
       id="circle9167"
       style="stroke-width:2.35461" />
    <circle
       fill="#9266cc"
       cx="40.83886"
       cy="4.3636799"
       r="4.7092295"
       id="circle9169"
       style="stroke-width:2.35461" />
    <circle
       fill="#9266cc"
       cx="56.881073"
       cy="40.851757"
       r="4.7092295"
       id="circle9171"
       style="stroke-width:2.35461" />
    <circle
       fill="#5c913b"
       cx="34.584522"
       cy="43.456501"
       r="3.5319221"
       id="circle9173"
       style="stroke-width:2.35461" />
    <circle
       fill="#5c913b"
       cx="62.135223"
       cy="59.525867"
       r="3.5319221"
       id="circle9175"
       style="stroke-width:2.35461" />
    <circle
       fill="#ffcc4d"
       cx="14.428818"
       cy="34.130989"
       r="4.7092295"
       id="circle9177"
       style="stroke-width:2.35461" />
    <circle
       fill="#ffcc4d"
       cx="100.48146"
       cy="76.908379"
       r="3.5319221"
       id="circle9179"
       style="stroke-width:2.35461" />
    <circle
       fill="#ffcc4d"
       cx="38.947514"
       cy="87.236191"
       r="3.5319221"
       id="circle9181"
       style="stroke-width:2.35461" />
    <path
       fill="#77b255"
       d="m 26.875353,88.925138 c -3.285719,3.536417 -7.099267,3.43544 -9.165333,1.509435 -2.064843,-1.923992 -2.442291,-5.721883 0.843865,-9.253053 1.284004,-1.377379 1.297888,-2.40035 1.092261,-2.597682 -0.214114,-0.197678 -1.236801,-0.106977 -2.516782,1.267952 -3.284933,3.533181 -7.099705,3.430193 -9.1657706,1.504189 -2.070089,-1.923555 -2.441067,-5.719873 0.847101,-9.252269 1.2807676,-1.378163 1.2954386,-2.404374 1.083777,-2.598033 -0.208424,-0.192871 -1.231553,-0.107413 -2.513545,1.268739 -0.883395,0.948727 -2.374727,1.007766 -3.324669,0.122363 -0.950382,-0.890657 -1.003745,-2.377176 -0.117552,-3.330356 3.284147,-3.529942 7.0972566,-3.43421 9.1697956,-1.506635 2.064841,1.923988 2.437831,5.719087 -0.847889,9.255502 -1.284004,1.377378 -1.297888,2.40035 -1.086227,2.594008 0.207641,0.196106 1.230768,0.11065 2.510748,-1.264279 3.288954,-3.535631 7.099269,-3.43544 9.169797,-1.506639 2.065633,1.920757 2.438613,5.715853 -0.849116,9.253494 -1.281205,1.372918 -1.291417,2.401923 -1.086225,2.594008 0.212888,0.195667 1.232778,0.109426 2.515993,-1.264718 0.884971,-0.955188 2.372711,-1.006541 3.324671,-0.122358 0.94994,0.885407 1.00374,2.377176 0.1151,3.326332 z"
       id="path9584"
       style="stroke-width:2.35461" />
    <path
       fill="#aa8dd8"
       d="m 85.176211,57.560299 c 0.529775,-0.2843 1.167882,-0.36632 1.791856,-0.180302 1.966105,0.592403 3.527501,1.607443 4.504032,2.932422 1.033861,1.402756 1.356419,3.087045 0.8939,4.627087 -0.81349,2.700899 -4.05239,4.716416 -8.676714,3.32568 -1.798716,-0.539579 -2.726009,-0.101973 -2.806097,0.172903 -0.08471,0.274012 0.448315,1.152062 2.246604,1.693955 1.966105,0.592403 3.527502,1.607443 4.504031,2.932422 1.033862,1.402756 1.361048,3.08791 0.893901,4.627088 -0.813922,2.703212 -4.05239,4.716415 -8.672517,3.328859 -1.311025,-0.393393 -2.06842,-0.249818 -2.400293,-0.127367 -0.26563,0.101313 -0.386907,0.224756 -0.410866,0.301719 -0.07966,0.272562 0.444126,1.148881 2.247036,1.691641 1.244767,0.376226 1.952833,1.689387 1.576606,2.93415 -0.373913,1.245196 -1.684323,1.951382 -2.934151,1.576608 -4.620127,-1.387558 -6.214602,-4.854416 -5.400246,-7.559945 0.813921,-2.703212 4.05239,-4.716415 8.676712,-3.325679 1.310594,0.395707 2.063792,0.248953 2.395663,0.126502 0.267507,-0.09858 0.388791,-0.222007 0.410435,-0.299405 0.08472,-0.274011 -0.443692,-1.151196 -2.246604,-1.693955 -4.619694,-1.389871 -6.214601,-4.854414 -5.400246,-7.559942 0.813922,-2.703214 4.052822,-4.71873 8.671652,-3.32423 1.311025,0.393393 2.068853,0.247504 2.400723,0.125051 0.26522,-0.09894 0.386477,-0.22244 0.410435,-0.299403 0.08009,-0.274877 -0.448316,-1.152063 -2.246603,-1.693956 -1.245199,-0.373911 -1.952832,-1.689384 -1.576605,-2.934151 0.193393,-0.624991 0.617147,-1.111138 1.147356,-1.397752 z"
       id="path9586"
       style="stroke-width:2.35461" />
    <path
       fill="#aa8dd8"
       d="m 17.930322,-11.517044 c 0.446688,-0.40244 1.046823,-0.634272 1.697155,-0.60243 2.050655,0.106425 3.80907,0.719808 5.073411,1.773668 1.338566,1.1157218 2.053494,2.6744876 1.971597,4.2803974 -0.145895,2.8169728 -2.810671,5.5467625 -7.633235,5.29898453 -1.875497,-0.0950441 -2.671672,0.55108051 -2.683896,0.83712506 -0.01692,0.28630777 0.710129,1.01190451 2.585764,1.10929751 2.050654,0.1064242 3.80907,0.7198074 5.07341,1.7736687 1.338567,1.115721 2.058196,2.6742233 1.971598,4.2803976 -0.145763,2.8193222 -2.810671,5.5467622 -7.628401,5.3010712 -1.367015,-0.06938 -2.068316,0.250677 -2.361411,0.448741 -0.233804,0.161738 -0.322142,0.310542 -0.327055,0.390998 -0.01236,0.283696 0.705301,1.009815 2.585631,1.106948 1.298575,0.06851 2.299379,1.174921 2.230864,2.473492 -0.06616,1.29844 -1.170349,2.296763 -2.473493,2.230867 -4.81773,-0.245692 -7.192991,-3.232261 -7.047359,-6.053937 0.145762,-2.819322 2.810671,-5.5467615 7.633233,-5.298983 1.367149,0.071733 2.063616,-0.2504129 2.356708,-0.4484768 0.236279,-0.1595319 0.324628,-0.308322 0.327189,-0.3886485 C 21.29896,6.7098275 20.5766,5.9839707 18.696269,5.8868391 13.878407,5.638797 11.503279,2.6545798 11.64891,-0.16709485 11.794673,-2.9864189 14.459449,-5.7162076 19.277575,-5.463464 c 1.367015,0.069383 2.068185,-0.253027 2.361276,-0.4510927 0.233972,-0.1593361 0.322277,-0.3081906 0.327189,-0.3886465 0.01223,-0.286046 -0.710129,-1.0119053 -2.585762,-1.1092988 -1.298443,-0.066161 -2.299378,-1.1749186 -2.230864,-2.4734938 0.03876,-0.6530782 0.334351,-1.2262572 0.780908,-1.6310482 z"
       id="path12881"
       style="stroke-width:2.35461" />
  </g>
</svg>

<svg xmlns="http://www.w3.org/2000/svg" xmlns:xlink="http://www.w3.org/1999/xlink" width="37.39mm" height="41.44mm" viewBox="0 0 106 117.47">
  <defs>
    <style>
      .cls-1 {
        fill: none;
      }

      .cls-2 {
        fill: #f39110;
      }

      .cls-3 {
        clip-path: url(#clip-path);
      }

      .cls-4 {
        fill: #fecc50;
      }

      .cls-5 {
        fill: #a11922;
      }

      .cls-6 {
        fill: #8d2a3e;
      }

      .cls-7 {
        fill: #2b2c29;
      }

      .cls-8 {
        fill: #e02233;
      }

      .cls-9 {
        fill: #e95b6f;
      }
    </style>
    <clipPath id="clip-path">
      <path class="cls-1" d="M53.83,33.61c-12.33,1-21.36,7.54-25.7,14.41a56.86,56.86,0,0,0-3.85,7,20.68,20.68,0,0,1,8.21,1.85C37,59.1,42.27,61.46,46.1,72.48,49,80.81,50.28,88.78,57,90.28c7.58,1.7,25,0,33.07-8.45s9.42-14.64,7-22.55-12.57-21.76-26-25C65.19,32.91,59.44,33.14,53.83,33.61Z"/>
    </clipPath>
  </defs>
  <g id="Layer_2" data-name="Layer 2">
    <g id="grid">
      <g id="wh_copy" data-name="wh copy">
        <g id="ffs">
          <g>
            <path class="cls-2" d="M106,48.81a43,43,0,0,0-2.46-15c-1.34,13.72-8.76,20.68-16.37,17.3C80,48,85,36,85.45,30.28c.72-9.7.23-20.82-17.28-30.28,7.15,14.11.56,22.74-6.24,23.18-7.55.49-14.36-6.66-11.67-18.1-8.33,6-8.7,16.21-6.24,22.86,2.57,6.94-.27,12.64-6.75,13.19C30,41.75,26.11,33.24,30,19.8a43.33,43.33,0,1,0,76,29Z"/>
            <g class="cls-3">
              <path class="cls-4" d="M89.67,62.28c.26,7.48-6.34,10.33-9.86,8.87-5.08-2.11-3.66-5.6-4.89-12.89s-6.2-12.4-13.65-14.72C66.53,59,58,64.51,53.53,65.46s-9.1-.11-9.5-9.83A29,29,0,0,0,35.2,76.14c0,.89,0,1.77.1,2.64a41.18,41.18,0,0,0,57.91.74c.09-.87.15-1.75.16-2.64A29,29,0,0,0,89.67,62.28Z"/>
            </g>
            <path class="cls-5" d="M46.3,65.06c0,5.94-10.36,10.75-23.14,10.75S0,71,0,65.06s10.36-4.13,23.15-4.13S46.3,59.13,46.3,65.06Z"/>
            <path class="cls-6" d="M90,81.83C82,90.28,64.55,92,57,90.28c-6.69-1.5-8-9.47-10.87-17.8C42.27,61.46,37,59.1,32.49,56.91a20.68,20.68,0,0,0-8.21-1.85v0c-5.63.14-11.21,1.55-15.5,5.38C-4.43,72.24,2.31,88.19,7.16,92.67s8.13,5.19,8.49,5.84-.45,3-.9,4.62c-.5,1.85-1.79,5.08-.61,7.45s4.94,3.59,7.61,3.74,7.5-.18,9.3-2.08c1.34-1.42,1.19-4.2,1-5.53s-.51-3.54-.51-3.54,5.15.39,9.05.52c4.3.14,11.43.21,11.43.21s.31,3.5.35,4.49.4,5.73,1.27,6.7,2.26,2.54,7.52,2.37c6.73-.23,9.47-3.13,10.32-4.83.94-1.88.23-4.6,0-6.51S70,99.51,70,99.51s5.27-3,7.23-4,6.1-3.87,6.1-3.87.46,2.19.61,2.85c.2.92,1.76,2.38,6.93,2.23,6.5-.18,8.86-4.73,9.3-6.38s-.9-5.8-1.34-7.53S97,75.63,97.15,74.49"/>
            <path class="cls-7" d="M33,70.51c.55,2.49-.64,5.13-3.39,5.48-2.27.29-4.13-1.23-4.68-3.72A4.4,4.4,0,0,1,28,66.87,4.38,4.38,0,0,1,33,70.51Z"/>
            <path class="cls-7" d="M16.75,71.38c.17,2.52-1.94,5.13-4.7,4.73-2.26-.34-3.63-2.28-3.49-4.79A4.38,4.38,0,0,1,13,67C15.25,67.14,16.58,68.76,16.75,71.38Z"/>
            <path class="cls-7" d="M24.18,80.4c1-.75,2.65-2.48,3.83-1.1s-.71,2.78-1.79,3.64-3.51,3-5.32,3-4.33-1.89-6-3.2c-1.37-1.07-2-2.49-1.33-3.39s1.88-.63,2.89.2c1.17,1,3.42,2.86,4.31,2.83S22.84,81.39,24.18,80.4Z"/>
            <path class="cls-8" d="M41.1,60.43c-1.42-.28-1.81-6.66-5.1-11.34-3.1-4.4-9-6.61-12.85-6.61S13.4,44.69,10.3,49.09C7,53.77,6.63,60.15,5.2,60.43-.28,61.53,0,64.38,0,65c.21-.77.73-2.6,6.45-2.71s10.88,1.34,16.69,1.34,11.06-1.44,16.69-1.34,6.25,1.94,6.45,2.71C46.33,64.38,46.59,61.53,41.1,60.43Z"/>
            <path class="cls-9" d="M23.16,42.48c-3.47,0-8.27,5.94-8.27,8.36v6.52S15.07,59,16.41,59H29.9c1.34,0,1.52-1.66,1.52-1.66V50.84C31.42,48.42,26.62,42.48,23.16,42.48Z"/>
          </g>
        </g>
      </g>
    </g>
  </g>
</svg>
